X:1
T:Eastwick, LM
T:Eastwick, LM
T:Thomas Tertius Noble, 1902
T:Public Domain Courtesy of the Cyber Hymnal™
C:Thomas Tertius Noble, 1902
Z:Public Domain
Z:Courtesy of the Cyber Hymnal™
%%score ( 1 2 ) ( 3 4 )
L:1/8
Q:1/4=113
M:none
K:D
V:1 treble 
V:2 treble 
V:3 bass 
V:4 bass 
V:1
 A2 | [GB]2 ([FA][EG]) [DF]2 [DG]2 | [DA]2 (FE) D2 [DF]2 | [EG]2 [FA]2 [GB]2 [Ac]2 | %4
 [Gd]2 (ed) [Ec]2 [EA]2 | [GB]2 (cB) [GA]2 [FA]2 | G2 (AG) [EF]2 [DF]2 | [Dd]2 [DB]2 A2 d2 | %8
 [Af]2 e2 [Fd]2 |] %9
V:2
 A2 | x8 | x2 C2 D2 x2 | x8 | x2 E2 x4 | x2 G2 x4 | (FE) E2 x4 | x4 (EF) (FG) | x2 (AG) x2 |] %9
V:3
 [F,D]2 | [E,D]2 [A,C]2 ([B,D][A,C]) [G,B,]2 | [F,A,]2 [A,,G,]2 [B,,F,]2 B,2 | %3
 [B,D]2 [A,D]2 [G,D]2 [G,E]2 | [F,D]2 [^G,B,]2 A,2 [A,C]2 | [G,D]2 (ED) [A,C]2 (DC) | %6
 [E,B,]2 (CB,) [F,^A,]2 B,2 | [G,,B,]2 [G,B,]2 ([G,C][F,D]) [B,D]2 | [A,D]2 [A,,C]2 [D,D]2 |] %9
V:4
 x2 | x8 | x6 B,2 | x8 | x4 A,2 x2 | x2 E,2 x D,2 x | x2 C,2 x (B,,^A,,) x | x8 | x6 |] %9

